assets/Keycap 5/Flat/keycap_5_flat.svg

<svg width="32" height="33" viewBox="0 0 32 33" fill="none" xmlns="http://www.w3.org/2000/svg">
<path d="M2 6.12048C2 3.91134 3.79086 2.12048 6 2.12048H26C28.2091 2.12048 30 3.91134 30 6.12048V26.1205C30 28.3296 28.2091 30.1205 26 30.1205H6C3.79086 30.1205 2 28.3296 2 26.1205V6.12048Z" fill="#00A6ED"/>
<path d="M11.0782 9.87048C11.0782 8.90399 11.8617 8.12048 12.8282 8.12048H18.2656C19.2321 8.12048 20.0156 8.90399 20.0156 9.87048C20.0156 10.837 19.2321 11.6205 18.2656 11.6205H14.5782V13.1451H15.5469C18.6449 13.1451 21.1563 15.6565 21.1563 18.7545C21.1563 21.8525 18.6449 24.3639 15.5469 24.3639C13.8718 24.3639 12.3665 23.6274 11.3412 22.4663C10.7015 21.7418 10.7702 20.6359 11.4946 19.9962C12.2191 19.3565 13.325 19.4252 13.9648 20.1496C14.3538 20.5903 14.9173 20.8639 15.5469 20.8639C16.7119 20.8639 17.6563 19.9195 17.6563 18.7545C17.6563 17.5895 16.7119 16.6451 15.5469 16.6451H12.8282C11.8617 16.6451 11.0782 15.8616 11.0782 14.8951V9.87048Z" fill="white"/>
</svg>

<svg xmlns="http://www.w3.org/2000/svg" width="32" height="33" fill="none"><path fill="#00A6ED" d="M2 6.12a4 4 0 0 1 4-4h20a4 4 0 0 1 4 4v20a4 4 0 0 1-4 4H6a4 4 0 0 1-4-4v-20Z"/><path fill="#fff" d="M11.078 9.87c0-.966.784-1.75 1.75-1.75h5.438a1.75 1.75 0 0 1 0 3.5h-3.688v1.525h.969a5.61 5.61 0 1 1-4.206 9.321 1.75 1.75 0 0 1 2.624-2.316 2.11 2.11 0 1 0 1.582-3.505h-2.719a1.75 1.75 0 0 1-1.75-1.75V9.87Z"/></svg>
